static/assets/images/exchanges/kyo.svg

<svg width="250" height="256" viewBox="0 0 250 256" fill="none" xmlns="http://www.w3.org/2000/svg">
<path d="M50 256V201.144H75.0001V182.856H100V164.572H150.002V182.856H175V201.144H200.001V256H250V182.856H225.002V164.572H200.001V146.286H175V109.715H200.001V91.4283H225.002V73.1425H250V0H200.001V54.8575H175V73.1425H150.002V91.4283H100V73.1425H75.0001V54.8575H50V0H0V73.1425H24.9999V91.4283H50V109.715H75.0001V146.286H50V164.572H24.9999V182.856H0V256H50Z" fill="#FF4D00"/>
</svg>

<svg xmlns="http://www.w3.org/2000/svg" fill="none" viewBox="0 0 250 256"><path fill="#FF4D00" d="M50 256v-54.856h25v-18.288h25v-18.284h50.002v18.284H175v18.288h25.001V256H250v-73.144h-24.998v-18.284h-25.001v-18.286H175v-36.571h25.001V91.428h25.001V73.143H250V0h-49.999v54.858H175v18.285h-24.998v18.285H100V73.143H75V54.858H50V0H0v73.143h25v18.285h25v18.287h25v36.571H50v18.286H25v18.284H0V256z"/></svg>
